SVG_Azure_Grouped/Endpoint/Intune Software Update.svg

<?xml version="1.0" encoding="UTF-8" standalone="no"?>
<!-- Generated by Microsoft Visio, SVG Export Intune Software Update.svg Page-1 -->

<svg
   xmlns:dc="http://purl.org/dc/elements/1.1/"
   xmlns:cc="http://creativecommons.org/ns#"
   xmlns:rdf="http://www.w3.org/1999/02/22-rdf-syntax-ns#"
   xmlns:svg="http://www.w3.org/2000/svg"
   xmlns="http://www.w3.org/2000/svg"
   xmlns:sodipodi="http://sodipodi.sourceforge.net/DTD/sodipodi-0.dtd"
   xmlns:inkscape="http://www.inkscape.org/namespaces/inkscape"
   width="0.78735828in"
   height="0.62997282in"
   viewBox="0 0 56.689795 45.358206"
   xml:space="preserve"
   class="st6"
   version="1.1"
   id="svg47"
   sodipodi:docname="Intune Software Update.svg"
   style="font-size:12px;overflow:visible;color-interpolation-filters:sRGB;fill:none;fill-rule:evenodd;stroke-linecap:square;stroke-miterlimit:3"
   inkscape:version="0.92.5 (2060ec1f9f, 2020-04-08)"><metadata
   id="metadata51"><rdf:RDF><cc:Work
       rdf:about=""><dc:format>image/svg+xml</dc:format><dc:type
         rdf:resource="http://purl.org/dc/dcmitype/StillImage" /></cc:Work></rdf:RDF></metadata><sodipodi:namedview
   pagecolor="#ffffff"
   bordercolor="#666666"
   borderopacity="1"
   objecttolerance="10"
   gridtolerance="10"
   guidetolerance="10"
   inkscape:pageopacity="0"
   inkscape:pageshadow="2"
   inkscape:window-width="640"
   inkscape:window-height="480"
   id="namedview49"
   showgrid="false"
   inkscape:zoom="2.1095237"
   inkscape:cx="37.795143"
   inkscape:cy="10.582691"
   inkscape:window-x="0"
   inkscape:window-y="0"
   inkscape:window-maximized="0"
   inkscape:current-layer="svg47" />
	<style
   type="text/css"
   id="style2">
	<![CDATA[
		.st1 {fill:#0078d4;stroke:none;stroke-linecap:butt;stroke-width:0.75}
		.st2 {fill:url(#grad0-7);stroke:none;stroke-linecap:butt;stroke-width:0.75}
		.st3 {fill:#f2f2f2;stroke:none;stroke-linecap:butt;stroke-width:0.75}
		.st4 {fill:#76bc2d;stroke:none;stroke-linecap:butt;stroke-width:0.75}
		.st5 {fill:#ffffff;stroke:none;stroke-linecap:butt;stroke-width:0.75}
		.st6 {fill:none;fill-rule:evenodd;font-size:12px;overflow:visible;stroke-linecap:square;stroke-miterlimit:3}
	]]>
	</style>

	<defs
   id="Patterns_And_Gradients">
		<linearGradient
   id="grad0-7"
   x1="0"
   y1="66.309247"
   x2="39.673662"
   y2="66.309247"
   gradientTransform="scale(1.2630546,0.79173143)"
   gradientUnits="userSpaceOnUse">
			<stop
   offset="0"
   stop-color="#d2ebff"
   stop-opacity="1"
   id="stop4" />
			<stop
   offset="1"
   stop-color="#f0fffd"
   stop-opacity="1"
   id="stop6" />
		</linearGradient>
	</defs>
	<g
   id="g45"
   transform="translate(-5.6694143,-4.53159)">
		<title
   id="title10">Page-1</title>
		<g
   id="group19908-1"
   transform="translate(5.66929,-34.0157)">
			<title
   id="title12">Intune Software Update.19908</title>
			<g
   id="shape19909-2"
   transform="translate(0,-8.44271)">
				<title
   id="title14">Sheet.19909</title>
				<path
   d="m 0,82.18 a 1.88981,1.72892 -180 0 0 1.89,1.73 H 54.8 a 1.88981,1.72892 -180 0 0 1.89,-1.73 V 48.72 A 1.88981,1.72892 -180 0 0 54.8,46.99 H 1.89 A 1.88981,1.72892 -180 0 0 0,48.72 Z"
   class="st1"
   id="path16"
   inkscape:connector-curvature="0"
   style="fill:#0078d4;stroke:none;stroke-width:0.75;stroke-linecap:butt" />
			</g>
			<g
   id="shape19910-4"
   transform="translate(3.30709,-11.353)">
				<title
   id="title19">Sheet.19910</title>
				<path
   d="m 0,82.95 a 1.03939,0.950907 -180 0 0 1.03937,0.950885 L 49.07,83.91 a 1.03939,0.950907 -180 0 0 1.03937,-0.950885 L 50.11,53.45 A 1.03939,0.950907 -180 0 0 49.07063,52.499115 L 1.04,52.5 A 1.03939,0.950907 -180 0 0 6.3e-4,53.450885 Z"
   class="st2"
   id="path21"
   inkscape:connector-curvature="0"
   style="fill:url(#grad0-7);stroke:none;stroke-width:0.75;stroke-linecap:butt" />
			</g>
			<g
   id="shape19911-8"
   transform="translate(25.4173,-43.4526)">
				<title
   id="title24">Sheet.19911</title>
				<path
   d="m 0,83.56 a 0.377962,0.345784 -180 0 0 0.377953,0.345776 L 5.64,83.91 A 0.377962,0.345784 -180 0 0 6.017953,83.564224 L 6.02,83.5 A 0.377962,0.345784 -180 0 0 5.642047,83.154224 L 0.38,83.16 a 0.377962,0.345784 -180 0 0 -0.377953,0.345776 z"
   class="st3"
   id="path26"
   inkscape:connector-curvature="0"
   style="fill:#f2f2f2;stroke:none;stroke-width:0.75;stroke-linecap:butt" />
			</g>
			<g
   id="shape19912-10"
   transform="translate(27.2441)">
				<title
   id="title29">Sheet.19912</title>
				<ellipse
   cx="13.2913"
   cy="71.745697"
   rx="13.2913"
   ry="12.1598"
   class="st4"
   id="ellipse31"
   style="fill:#76bc2d;stroke:none;stroke-width:0.75;stroke-linecap:butt" />
			</g>
			<g
   id="shape19913-12"
   transform="translate(29.7574,-4.50552)">
				<title
   id="title34">Sheet.19913</title>
				<path
   d="m 2.84,74.38 a 8.69291,7.95286 -180 0 0 -0.25,2.88 8.34646,7.63589 -180 0 0 1.13,2.88 7.9685,7.29012 -180 0 0 1.51,1.73 9.19685,8.41389 -180 0 0 1.93,1.24 11.3701,10.4021 -180 0 0 2.26,0.72 8.66142,7.92404 -180 0 0 2.4,0 L 11.6,81.73 A 0.440945,0.403406 -180 0 0 11.159055,81.326594 L 9.93,81.32 a 6.29921,5.76294 0 0 1 -1.51,-0.49 7.62205,6.97316 0 0 1 -1.33,-0.69 4.7874,4.37983 0 0 1 -1,-1.15 5.32283,4.86968 0 0 1 -0.76,-1.93 5.92126,5.41716 0 0 1 0,-2.05 l 0.79,1.21 a 0.472441,0.43222 -180 0 0 0.629921,0.144073 L 7.72,75.85 A 0.472441,0.43222 -180 0 0 7.87748,75.273706 L 5.23,71.18 A 0.503937,0.461035 -180 0 0 4.568583,71.035927 L 0.13,73.46 a 0.440945,0.403406 -180 0 0 0,0.576294 L 0.67,74.9 a 0.472441,0.43222 -180 0 0 0.661417,0.172888 z"
   class="st5"
   id="path36"
   inkscape:connector-curvature="0"
   style="fill:#ffffff;stroke:none;stroke-width:0.75;stroke-linecap:butt" />
			</g>
			<g
   id="shape19914-14"
   transform="translate(40.063,-6.76741)">
				<title
   id="title39">Sheet.19914</title>
				<path
   d="m 1.83,73.41 a 7.81102,7.14604 0 0 1 1.51,0.49 6.29921,5.76294 0 0 1 1.32,0.87 5.03937,4.61035 0 0 1 1.04,1.15 5.6063,5.12902 0 0 1 0.73,1.93 5.95276,5.44598 0 0 1 0,2.05 L 5.64,78.69 A 0.472441,0.43222 -180 0 0 5.010079,78.517112 L 4.06,79.03 A 0.472441,0.43222 -180 0 0 3.90252,79.635109 L 6.52,83.7 a 0.503937,0.461035 -180 0 0 0.661417,0.172888 L 11.62,81.45 a 0.472441,0.43222 -180 0 0 0.188976,-0.605109 L 11.24,79.98 A 0.503937,0.461035 -180 0 0 10.578583,79.835927 L 9.04,80.67 a 8.25197,7.54945 -180 0 0 0.25,-3.11 9.07087,8.29863 -180 0 0 -1.1,-2.88 9.73228,8.90374 -180 0 0 -1.51,-1.7 8.7874,8.0393 -180 0 0 -4.35,-2.1 7.77953,7.11723 -180 0 0 -1.92,0 0.440945,0.403406 -180 0 0 -0.409449,0.461035 L 0,73.01 A 0.472441,0.43222 -180 0 0 0.440945,73.384591 8.06299,7.37656 0 0 1 1.83,73.41 Z"
   class="st5"
   id="path41"
   inkscape:connector-curvature="0"
   style="fill:#ffffff;stroke:none;stroke-width:0.75;stroke-linecap:butt" />
			</g>
		</g>
	</g>
</svg>

<?xml version="1.0" encoding="UTF-8" standalone="no"?>
<!DOCTYPE svg PUBLIC "-//W3C//DTD SVG 1.1//EN" "http://www.w3.org/Graphics/SVG/1.1/DTD/svg11.dtd">
<!-- Generated by Microsoft Visio, SVG Export Intune Software Update.svg Page-1 -->
<svg xmlns="http://www.w3.org/2000/svg" xmlns:xlink="http://www.w3.org/1999/xlink" xmlns:ev="http://www.w3.org/2001/xml-events"
		width="0.944882in" height="1.16535in" viewBox="0 0 68.0315 83.9055" xml:space="preserve" color-interpolation-filters="sRGB"
		class="st6">
	<style type="text/css">
	<![CDATA[
		.st1 {fill:#0078d4;stroke:none;stroke-linecap:butt;stroke-width:0.75}
		.st2 {fill:url(#grad0-7);stroke:none;stroke-linecap:butt;stroke-width:0.75}
		.st3 {fill:#f2f2f2;stroke:none;stroke-linecap:butt;stroke-width:0.75}
		.st4 {fill:#76bc2d;stroke:none;stroke-linecap:butt;stroke-width:0.75}
		.st5 {fill:#ffffff;stroke:none;stroke-linecap:butt;stroke-width:0.75}
		.st6 {fill:none;fill-rule:evenodd;font-size:12px;overflow:visible;stroke-linecap:square;stroke-miterlimit:3}
	]]>
	</style>

	<defs id="Patterns_And_Gradients">
		<linearGradient id="grad0-7" x1="0" y1="0" x2="1" y2="0" gradientTransform="rotate(-90 0.5 0.5)">
			<stop offset="0" stop-color="#d2ebff" stop-opacity="1"/>
			<stop offset="1" stop-color="#f0fffd" stop-opacity="1"/>
		</linearGradient>
	</defs>
	<g>
		<title>Page-1</title>
		<g id="group19453-1" transform="translate(5.66929,-34.0157)">
			<title>Intune Software Update.19453</title>
			<g id="shape19454-2" transform="translate(0,-8.44271)">
				<title>Sheet.19454</title>
				<path d="M0 82.18 A1.88981 1.72892 -180 0 0 1.89 83.91 L54.8 83.91 A1.88981 1.72892 -180 0 0 56.69 82.18 L56.69 48.72
							 A1.88981 1.72892 -180 0 0 54.8 46.99 L1.89 46.99 A1.88981 1.72892 -180 0 0 -0 48.72 L0 82.18 Z"
						class="st1"/>
			</g>
			<g id="shape19455-4" transform="translate(3.30709,-11.353)">
				<title>Sheet.19455</title>
				<path d="M0 82.95 a1.03939 0.950907 -180 0 0 1.03937 0.950885 L49.07 83.91 a1.03939 0.950907 -180 0 0 1.03937 -0.950885
							 L50.11 53.45 a1.03939 0.950907 -180 0 0 -1.03937 -0.950885 L1.04 52.5 a1.03939 0.950907 -180 0 0 -1.03937
							 0.950885 L0 82.95 Z" class="st2"/>
			</g>
			<g id="shape19456-8" transform="translate(25.4173,-43.4526)">
				<title>Sheet.19456</title>
				<path d="M0 83.56 a0.377962 0.345784 -180 0 0 0.377953 0.345776 L5.64 83.91 a0.377962 0.345784 -180 0 0 0.377953
							 -0.345776 L6.02 83.5 a0.377962 0.345784 -180 0 0 -0.377953 -0.345776 L0.38 83.16 a0.377962 0.345784
							 -180 0 0 -0.377953 0.345776 L0 83.56 Z" class="st3"/>
			</g>
			<g id="shape19457-10" transform="translate(27.2441,0)">
				<title>Sheet.19457</title>
				<ellipse cx="13.2913" cy="71.7457" rx="13.2913" ry="12.1598" class="st4"/>
			</g>
			<g id="shape19458-12" transform="translate(29.7574,-4.50552)">
				<title>Sheet.19458</title>
				<path d="M2.84 74.38 A8.69291 7.95286 -180 0 0 2.59 77.26 A8.34646 7.63589 -180 0 0 3.72 80.14 A7.9685 7.29012 -180
							 0 0 5.23 81.87 A9.19685 8.41389 -180 0 0 7.16 83.11 A11.3701 10.4021 -180 0 0 9.42 83.83 A8.66142 7.92404
							 -180 0 0 11.82 83.83 L11.6 81.73 a0.440945 0.403406 -180 0 0 -0.440945 -0.403406 L9.93 81.32 A6.29921
							 5.76294 0 0 1 8.42 80.83 A7.62205 6.97316 0 0 1 7.09 80.14 A4.7874 4.37983 0 0 1 6.09 78.99 A5.32283
							 4.86968 0 0 1 5.33 77.06 A5.92126 5.41716 0 0 1 5.33 75.01 L6.12 76.22 a0.472441 0.43222 -180 0 0 0.629921
							 0.144073 L7.72 75.85 a0.472441 0.43222 -180 0 0 0.15748 -0.576294 L5.23 71.18 a0.503937 0.461035 -180
							 0 0 -0.661417 -0.144073 L0.13 73.46 a0.440945 0.403406 -180 0 0 -1.02696E-14 0.576294 L0.67 74.9 a0.472441
							 0.43222 -180 0 0 0.661417 0.172888 L2.84 74.38 Z" class="st5"/>
			</g>
			<g id="shape19459-14" transform="translate(40.063,-6.76741)">
				<title>Sheet.19459</title>
				<path d="M1.83 73.41 A7.81102 7.14604 0 0 1 3.34 73.9 A6.29921 5.76294 0 0 1 4.66 74.77 A5.03937 4.61035 0 0 1 5.7
							 75.92 A5.6063 5.12902 0 0 1 6.43 77.85 A5.95276 5.44598 0 0 1 6.43 79.9 L5.64 78.69 a0.472441 0.43222
							 -180 0 0 -0.629921 -0.172888 L4.06 79.03 a0.472441 0.43222 -180 0 0 -0.15748 0.605109 L6.52 83.7 a0.503937
							 0.461035 -180 0 0 0.661417 0.172888 L11.62 81.45 a0.472441 0.43222 -180 0 0 0.188976 -0.605109 L11.24
							 79.98 a0.503937 0.461035 -180 0 0 -0.661417 -0.144073 L9.04 80.67 A8.25197 7.54945 -180 0 0 9.29 77.56
							 A9.07087 8.29863 -180 0 0 8.19 74.68 A9.73228 8.90374 -180 0 0 6.68 72.98 A8.7874 8.0393 -180 0 0 2.33
							 70.88 A7.77953 7.11723 -180 0 0 0.41 70.88 a0.440945 0.403406 -180 0 0 -0.409449 0.461035 L0 73.01 a0.472441
							 0.43222 -180 0 0 0.440945 0.374591 A8.06299 7.37656 0 0 1 1.83 73.41 Z" class="st5"/>
			</g>
		</g>
	</g>
</svg>
